!!!COM: Music21
!!!OTL: strathspey_Cho-Dean-Sin-Sta-Machra
!!!OMV: strathspey_Cho-Dean-Sin-Sta-Machra
**kern
*clefG2
*k[f#c#]
*D:
*M4/4
=1
8b
=
4a
8aL
16ff#L
16eeJJ
8.ddL
16bJk
8.bL
16ddJk
=
16aKL
8.f#J
8.aL
16bJk
8.ddL
16aJk
8.aL
16bJk
=
16aKL
8.f#J
8.aL
16bJk
8.ddL
16bJk
8.bL
16eeJk
=
16aKL
8.aJ
8.eeL
16bJk
8.dd
16b
8a
8ryy
!!linebreak:original
=||
*M4/4
8b
=
4a
8aL
16ff#L
16eeJJ
8.ddL
16bJk
8.bL
16ddJk
=
16aKL
8.f#J
8.aL
16bJk
8.ddL
16aJk
8.aL
16bJk
=
16aKL
8.f#J
8.aL
16bJk
8.ddL
16bJk
8.bL
16eeJk
=
16aKL
8.aJ
8.eeL
16bJk
8.dd
16b
8a
8ryy
!!linebreak:original
=||
8gg
2..ryy
=||
16ff#KL
8.ddJ
8.ff#L
16eeJk
16ddKL
8.bJ
8.bL
16aaJk
=
16ff#KL
8.ddJ
8.ff#L
16eeJk
16ddKL
8.bJ
8.aL
16aaJk
=
16ff#KL
8.ddJ
8.ff#L
16eeJk
8.ddL
16bJk
8.bL
16ddJk
=
8.eeL
16ff#Jk
8.ggL
16ff#Jk
8.ff#L
16ddJk
8.eeL
16bJk
!!linebreak:original
=||
16ff#KL
8.ddJ
8.ff#L
16eeJk
16ddKL
8.bJ
8.bL
16aaJk
=
16ff#KL
8.ddJ
8.ff#L
16eeJk
16ddKL
8.bJ
8.aL
16aaJk
=
16ff#KL
8.ddJ
8.ff#L
16eeJk
8.ddL
16bJk
8.bL
16ddJk
=
8.dd
16ff#LL
16eeJ
8.bJ
8.ddL
16bJk
8a
8ryy
=||
*-
